app/src/img/earth.svg

<svg xmlns="http://www.w3.org/2000/svg" width="144" height="143"><style/><path id="Forma 1" d="M72 142c-.41.01-.82 0-1.23-.01-.13.01-.25 0-.37.01-.24 0-.49-.01-.73-.04-23.59-.76-44.3-13.08-56.65-31.46-.13-.15-.25-.33-.34-.52C5.28 98.76.98 85.32 1 70.9c.03-18.96 7.44-36.78 20.87-50.17C34.77 7.86 51.74.56 69.87.03c.25-.02.52 0 .73-.03.13 0 .25 0 .38.01.37 0 .75-.01 1.12-.01 18.97.03 36.79 7.44 50.18 20.87S143.03 52.14 143 71.11a70.56 70.56 0 0 1-11.77 39.01c-.1.21-.23.41-.39.57C118.07 129.57 96.45 142 72 142zm-2.41-4.22c.4.03.8.05 1.2.07 3.93-.42 8.13-7.32 11.32-18.64.71-2.5 1.35-5.15 1.92-7.94l-27.18-.03c.57 2.79 1.21 5.44 1.9 7.93 3.05 10.92 7.05 17.74 10.84 18.61zm18.66-26.5c-.65 3.19-1.37 6.22-2.16 9.04-2.12 7.5-4.62 13.12-7.44 16.76 11.37-2.72 21.31-12.24 27.99-25.77l-18.39-.03zm-51-.07c5.87 11.99 14.31 20.85 24.05 24.63-2.46-3.63-4.65-8.85-6.52-15.56-.79-2.83-1.5-5.86-2.14-9.05l-15.39-.02zm73.89.1c-4.51 9.71-10.6 17.66-17.71 23.04 12.8-4.34 23.87-12.46 31.88-23.02l-14.17-.02zm-92.56-.13c7.98 10.58 19.02 18.73 31.8 23.11-7.08-5.4-13.15-13.37-17.63-23.09l-14.17-.02zm94.34-3.99l15.28.02a66.39 66.39 0 0 0 10.64-34.05l-19.26-.03c-.26 12.41-2.66 24.03-6.66 34.06zm-23.91-.04l19.51.03c4.16-9.88 6.67-21.54 6.93-34.05l-23.57-.03c-.11 12.18-1.11 23.84-2.87 34.05zm-32.94-.04l28.76.04c1.79-10.15 2.81-21.82 2.92-34.06l-34.51-.05c.09 12.24 1.07 23.92 2.83 34.07zm-20.69-.03l16.51.02c-1.73-10.22-2.69-21.88-2.77-34.07L28.54 73c.23 12.52 2.71 24.19 6.84 34.08zm-19.68-.03l15.28.02C27 97.03 24.64 85.41 24.41 73l-19.25-.03a66.371 66.371 0 0 0 10.54 34.08zm103.89-38.04l19.26.02c-.34-11.83-3.74-23.14-9.83-33.02l-15.53-.02c3.78 9.99 5.89 21.27 6.1 33.02zm-27.7-.04l23.57.03c-.22-11.84-2.43-23.14-6.4-33.02l-19.77-.02c1.62 9.96 2.52 21.24 2.6 33.01zm-38.64-.06l34.51.05c-.08-11.81-1-23.11-2.65-33.01L56 35.91c-1.69 9.89-2.64 21.18-2.75 33zm-24.7-.03l20.57.03c.11-11.77 1.04-23.05 2.69-33.01l-16.77-.02c-3.99 9.86-6.24 21.16-6.49 33zm-23.39-.04l19.26.03c.24-11.75 2.38-23.02 6.19-33l-15.53-.02c-6.11 9.86-9.54 21.16-9.92 32.99zm106.63-36.98l14.46.02a66.733 66.733 0 0 0-6.9-8.1c-7.32-7.34-16.05-12.77-25.58-16.04 4.47 3.41 8.6 7.92 12.23 13.43 2.18 3.31 4.11 6.89 5.79 10.69zm-23.22-.03l18.68.02c-1.4-2.96-2.97-5.78-4.7-8.41-6.56-9.96-14.81-16.35-23.71-18.5 2.8 3.65 5.3 9.28 7.39 16.78.87 3.14 1.65 6.52 2.34 10.11zm-31.81-.05l27.6.04c-.62-3.18-1.33-6.19-2.11-8.99C79.09 11.5 74.91 4.59 70.99 4.15c-.4.01-.81.04-1.21.07-3.8.86-7.81 7.67-10.89 18.58-.79 2.8-1.5 5.8-2.13 8.98zm-19.9-.03l15.69.02c.69-3.58 1.48-6.96 2.37-10.09 1.89-6.71 4.1-11.92 6.56-15.55-7.42 2.86-14.27 8.73-19.89 17.22a69 69 0 0 0-4.73 8.4zm-19-.03l14.46.02c1.69-3.79 3.64-7.36 5.83-10.67 3.64-5.49 7.78-9.99 12.27-13.4-9.54 3.25-18.29 8.65-25.64 15.98a67.543 67.543 0 0 0-6.92 8.07z" fill="#56d2ae"/></svg>

<svg xmlns="http://www.w3.org/2000/svg" viewBox="0 0 144 143" width="144" height="143">
	<style>
		tspan { white-space:pre }
		.shp0 { fill: #56d2ae } 
	</style>
	<path id="Forma 1" class="shp0" d="M72 142C71.59 142.01 71.18 142 70.77 141.99C70.64 142 70.52 141.99 70.4 142C70.16 142 69.91 141.99 69.67 141.96C46.08 141.2 25.37 128.88 13.02 110.5C12.89 110.35 12.77 110.17 12.68 109.98C5.28 98.76 0.98 85.32 1 70.9L1 70.9C1.03 51.94 8.44 34.12 21.87 20.73C34.77 7.86 51.74 0.56 69.87 0.03C70.12 0.01 70.39 0.03 70.6 0C70.73 0 70.85 0 70.98 0.01C71.35 0.01 71.73 0 72.1 0C91.07 0.03 108.89 7.44 122.28 20.87C135.67 34.3 143.03 52.14 143 71.11C142.98 85.51 138.65 98.93 131.23 110.12C131.13 110.33 131 110.53 130.84 110.69C118.07 129.57 96.45 142 72 142ZM69.59 137.78C69.99 137.81 70.39 137.83 70.79 137.85C74.72 137.43 78.92 130.53 82.11 119.21C82.82 116.71 83.46 114.06 84.03 111.27L56.85 111.24C57.42 114.03 58.06 116.68 58.75 119.17C61.8 130.09 65.8 136.91 69.59 137.78ZM88.25 111.28C87.6 114.47 86.88 117.5 86.09 120.32C83.97 127.82 81.47 133.44 78.65 137.08C90.02 134.36 99.96 124.84 106.64 111.31L88.25 111.28ZM37.25 111.21C43.12 123.2 51.56 132.06 61.3 135.84C58.84 132.21 56.65 126.99 54.78 120.28C53.99 117.45 53.28 114.42 52.64 111.23L37.25 111.21ZM111.14 111.31C106.63 121.02 100.54 128.97 93.43 134.35C106.23 130.01 117.3 121.89 125.31 111.33L111.14 111.31ZM18.58 111.18C26.56 121.76 37.6 129.91 50.38 134.29C43.3 128.89 37.23 120.92 32.75 111.2L18.58 111.18ZM112.92 107.19L128.2 107.21C134.59 97.34 138.44 85.68 138.84 73.16L119.58 73.13C119.32 85.54 116.92 97.16 112.92 107.19ZM89.01 107.15L108.52 107.18C112.68 97.3 115.19 85.64 115.45 73.13L91.88 73.1C91.77 85.28 90.77 96.94 89.01 107.15ZM56.07 107.11L84.83 107.15C86.62 97 87.64 85.33 87.75 73.09L53.24 73.04C53.33 85.28 54.31 96.96 56.07 107.11ZM35.38 107.08L51.89 107.1C50.16 96.88 49.2 85.22 49.12 73.03L28.54 73C28.77 85.52 31.25 97.19 35.38 107.08ZM15.7 107.05L30.98 107.07C27 97.03 24.64 85.41 24.41 73L5.16 72.97C5.52 85.49 9.34 97.16 15.7 107.05ZM119.59 69.01L138.85 69.03C138.51 57.2 135.11 45.89 129.02 36.01L113.49 35.99C117.27 45.98 119.38 57.26 119.59 69.01ZM91.89 68.97L115.46 69C115.24 57.16 113.03 45.86 109.06 35.98L89.29 35.96C90.91 45.92 91.81 57.2 91.89 68.97ZM53.25 68.91L87.76 68.96C87.68 57.15 86.76 45.85 85.11 35.95L56 35.91C54.31 45.8 53.36 57.09 53.25 68.91ZM28.55 68.88L49.12 68.91C49.23 57.14 50.16 45.86 51.81 35.9L35.04 35.88C31.05 45.74 28.8 57.04 28.55 68.88ZM5.16 68.84L24.42 68.87C24.66 57.12 26.8 45.85 30.61 35.87L15.08 35.85C8.97 45.71 5.54 57.01 5.16 68.84ZM111.79 31.86L126.25 31.88C124.19 29.03 121.89 26.32 119.35 23.78C112.03 16.44 103.3 11.01 93.77 7.74C98.24 11.15 102.37 15.66 106 21.17C108.18 24.48 110.11 28.06 111.79 31.86ZM88.57 31.83L107.25 31.85C105.85 28.89 104.28 26.07 102.55 23.44C95.99 13.48 87.74 7.09 78.84 4.94C81.64 8.59 84.14 14.22 86.23 21.72C87.1 24.86 87.88 28.24 88.57 31.83ZM56.76 31.78L84.36 31.82C83.74 28.64 83.03 25.63 82.25 22.83C79.09 11.5 74.91 4.59 70.99 4.15C70.59 4.16 70.18 4.19 69.78 4.22C65.98 5.08 61.97 11.89 58.89 22.8C58.1 25.6 57.39 28.6 56.76 31.78ZM36.86 31.75L52.55 31.77C53.24 28.19 54.03 24.81 54.92 21.68C56.81 14.97 59.02 9.76 61.48 6.13C54.06 8.99 47.21 14.86 41.59 23.35C39.85 25.98 38.27 28.79 36.86 31.75ZM17.86 31.72L32.32 31.74C34.01 27.95 35.96 24.38 38.15 21.07C41.79 15.58 45.93 11.08 50.42 7.67C40.88 10.92 32.13 16.32 24.78 23.65C22.24 26.18 19.93 28.88 17.86 31.72Z" />
</svg>
